Numix/16/status/indicator-keyboard-Ro.svg

<?xml version="1.0" encoding="UTF-8" standalone="no"?>
<svg
   xmlns:dc="http://purl.org/dc/elements/1.1/"
   xmlns:cc="http://creativecommons.org/ns#"
   xmlns:rdf="http://www.w3.org/1999/02/22-rdf-syntax-ns#"
   xmlns:svg="http://www.w3.org/2000/svg"
   xmlns="http://www.w3.org/2000/svg"
   xmlns:sodipodi="http://sodipodi.sourceforge.net/DTD/sodipodi-0.dtd"
   xmlns:inkscape="http://www.inkscape.org/namespaces/inkscape"
   viewBox="0 0 16 16"
   id="svg2"
   version="1.1"
   inkscape:version="0.91 r13725"
   sodipodi:docname="indicator-keyboard-Ro.svg">
  <metadata
     id="metadata13">
    <rdf:RDF>
      <cc:Work
         rdf:about="">
        <dc:format>image/svg+xml</dc:format>
        <dc:type
           rdf:resource="http://purl.org/dc/dcmitype/StillImage" />
      </cc:Work>
    </rdf:RDF>
  </metadata>
  <defs
     id="defs11" />
  <sodipodi:namedview
     pagecolor="#ffffff"
     bordercolor="#666666"
     borderopacity="1"
     objecttolerance="10"
     gridtolerance="10"
     guidetolerance="10"
     inkscape:pageopacity="0"
     inkscape:pageshadow="2"
     inkscape:window-width="640"
     inkscape:window-height="480"
     id="namedview9"
     showgrid="false"
     inkscape:zoom="14.75"
     inkscape:cx="8"
     inkscape:cy="8"
     inkscape:window-x="65"
     inkscape:window-y="24"
     inkscape:window-maximized="0"
     inkscape:current-layer="svg2" />
  <path
     style="fill:#ececec;fill-opacity:1"
     d="M 1.5996094 0 C 0.71320937 2.9605947e-16 0 0.71320937 0 1.5996094 L 0 14.400391 C 2.9605947e-16 15.286791 0.71320937 16 1.5996094 16 L 14.400391 16 C 15.286791 16 16 15.286791 16 14.400391 L 16 1.5996094 C 16 0.71320937 15.286791 0 14.400391 0 L 1.5996094 0 z M 4.8222656 4.8007812 C 5.6802656 4.8007812 6.3258125 4.9631094 6.7578125 5.2871094 C 7.1958125 5.6111094 7.4140625 6.0905625 7.4140625 6.7265625 C 7.4140625 7.1945625 7.2909219 7.5639844 7.0449219 7.8339844 C 6.7989219 8.1039844 6.4742656 8.2979687 6.0722656 8.4179688 C 6.1682656 8.5379687 6.2914063 8.7002969 6.4414062 8.9042969 C 6.5974062 9.1082969 6.7579219 9.3340781 6.9199219 9.5800781 C 7.0819219 9.8200781 7.2404844 10.071938 7.3964844 10.335938 C 7.5524844 10.599938 7.6849687 10.851797 7.7929688 11.091797 L 7.1347656 11.091797 C 7.0087656 10.851797 6.8707031 10.611094 6.7207031 10.371094 C 6.5767031 10.131094 6.4274844 9.8997342 6.2714844 9.6777344 C 6.1214844 9.4497344 5.9740781 9.2408281 5.8300781 9.0488281 L 5.453125 8.5449219 C 5.261125 8.5629219 5.0689531 8.5722656 4.8769531 8.5722656 L 3.8671875 8.5722656 L 3.8671875 11.091797 L 3.2558594 11.091797 L 3.2558594 4.9707031 C 3.4718594 4.9107031 3.7237188 4.8697031 4.0117188 4.8457031 C 4.3057187 4.8157031 4.5762656 4.8007812 4.8222656 4.8007812 z M 4.8945312 5.3320312 C 4.6665313 5.3320312 4.4650156 5.341375 4.2910156 5.359375 C 4.1230156 5.371375 3.9811875 5.3825313 3.8671875 5.3945312 L 3.8671875 8.0488281 L 4.7148438 8.0488281 C 4.9968438 8.0488281 5.263625 8.0376719 5.515625 8.0136719 C 5.767625 7.9836719 5.985875 7.9239844 6.171875 7.8339844 C 6.357875 7.7379844 6.5052813 7.6017344 6.6132812 7.4277344 C 6.7212813 7.2537344 6.7753906 7.0167969 6.7753906 6.7167969 C 6.7753906 6.4407969 6.7212813 6.2132031 6.6132812 6.0332031 C 6.5052812 5.8532031 6.3634531 5.7133281 6.1894531 5.6113281 C 6.0154531 5.5033281 5.8158906 5.4305313 5.5878906 5.3945312 C 5.3658906 5.3525312 5.1345313 5.3320312 4.8945312 5.3320312 z M 10.619141 6.3300781 C 10.931141 6.3300781 11.216609 6.3897656 11.474609 6.5097656 C 11.732609 6.6237656 11.954625 6.7898594 12.140625 7.0058594 C 12.332625 7.2158594 12.480031 7.4695312 12.582031 7.7695312 C 12.690031 8.0695313 12.744141 8.4035312 12.744141 8.7695312 C 12.744141 9.1355313 12.690031 9.4675781 12.582031 9.7675781 C 12.480031 10.067578 12.332625 10.323203 12.140625 10.533203 C 11.954625 10.743203 11.732609 10.909297 11.474609 11.029297 C 11.216609 11.143297 10.931141 11.199219 10.619141 11.199219 C 10.307141 11.199219 10.023625 11.143297 9.765625 11.029297 C 9.507625 10.909297 9.2818438 10.743203 9.0898438 10.533203 C 8.9038437 10.323203 8.7564375 10.067578 8.6484375 9.7675781 C 8.5464375 9.4675781 8.4960937 9.1355313 8.4960938 8.7695312 C 8.4960938 8.4035312 8.5464375 8.0695313 8.6484375 7.7695312 C 8.7564375 7.4695312 8.9038437 7.2158594 9.0898438 7.0058594 C 9.2818438 6.7898594 9.507625 6.6237656 9.765625 6.5097656 C 10.023625 6.3897656 10.307141 6.3300781 10.619141 6.3300781 z M 10.619141 6.8613281 C 10.15714 6.8613281 9.7914844 7.0348125 9.5214844 7.3828125 C 9.2514844 7.7248125 9.1171875 8.1875312 9.1171875 8.7695312 C 9.1171875 9.3515313 9.2514844 9.8142502 9.5214844 10.15625 C 9.7914844 10.49825 10.15714 10.667969 10.619141 10.667969 C 11.081141 10.667969 11.44875 10.49825 11.71875 10.15625 C 11.98875 9.8142502 12.123047 9.3515313 12.123047 8.7695312 C 12.123047 8.1875312 11.98875 7.7248125 11.71875 7.3828125 C 11.44875 7.0348125 11.081141 6.8613281 10.619141 6.8613281 z "
     id="path4" />
</svg>

<svg xmlns="http://www.w3.org/2000/svg" viewBox="0 0 16 16">
 <path d="m 1.6 0 c -0.886 0 -1.6 0.713 -1.6 1.6 l 0 12.801 c 0 0.886 0.713 1.6 1.6 1.6 l 12.801 0 c 0.886 0 1.6 -0.713 1.6 -1.6 l 0 -12.801 c 0 -0.886 -0.713 -1.6 -1.6 -1.6 l -12.801 0 z m 3.223 4.801 c 0.858 0 1.504 0.162 1.936 0.486 c 0.438 0.324 0.656 0.803 0.656 1.439 c 0 0.468 -0.123 0.837 -0.369 1.107 c -0.246 0.27 -0.571 0.464 -0.973 0.584 c 0.096 0.12 0.219 0.282 0.369 0.486 c 0.156 0.204 0.317 0.43 0.479 0.676 c 0.162 0.24 0.321 0.492 0.477 0.756 c 0.156 0.264 0.288 0.516 0.396 0.756 l -0.658 0 c -0.126 -0.24 -0.264 -0.481 -0.414 -0.721 c -0.144 -0.24 -0.293 -0.471 -0.449 -0.693 c -0.15 -0.228 -0.297 -0.437 -0.441 -0.629 l -0.377 -0.504 c -0.192 0.018 -0.384 0.027 -0.576 0.027 l -1.01 0 l 0 2.52 l -0.611 0 l 0 -6.121 c 0.216 -0.06 0.468 -0.101 0.756 -0.125 c 0.294 -0.03 0.565 -0.045 0.811 -0.045 z m 0.072 0.531 c -0.228 0 -0.43 0.009 -0.604 0.027 c -0.168 0.012 -0.31 0.023 -0.424 0.035 l 0 2.654 l 0.848 0 c 0.282 0 0.549 -0.011 0.801 -0.035 c 0.252 -0.03 0.47 -0.09 0.656 -0.18 c 0.186 -0.096 0.333 -0.232 0.441 -0.406 c 0.108 -0.174 0.162 -0.411 0.162 -0.711 c 0 -0.276 -0.054 -0.504 -0.162 -0.684 c -0.108 -0.18 -0.25 -0.32 -0.424 -0.422 c -0.174 -0.108 -0.374 -0.181 -0.602 -0.217 c -0.222 -0.042 -0.453 -0.063 -0.693 -0.063 z m 5.725 0.998 c 0.312 0 0.597 0.06 0.855 0.18 c 0.258 0.114 0.48 0.28 0.666 0.496 c 0.192 0.21 0.339 0.464 0.441 0.764 c 0.108 0.3 0.162 0.634 0.162 1 c 0 0.366 -0.054 0.698 -0.162 0.998 c -0.102 0.3 -0.249 0.556 -0.441 0.766 c -0.186 0.21 -0.408 0.376 -0.666 0.496 c -0.258 0.114 -0.543 0.17 -0.855 0.17 c -0.312 0 -0.596 -0.056 -0.854 -0.17 c -0.258 -0.12 -0.484 -0.286 -0.676 -0.496 c -0.186 -0.21 -0.333 -0.466 -0.441 -0.766 c -0.102 -0.3 -0.152 -0.632 -0.152 -0.998 c 0 -0.366 0.05 -0.7 0.152 -1 c 0.108 -0.3 0.255 -0.554 0.441 -0.764 c 0.192 -0.216 0.418 -0.382 0.676 -0.496 c 0.258 -0.12 0.542 -0.18 0.854 -0.18 z m 0 0.531 c -0.462 0 -0.828 0.173 -1.098 0.521 c -0.27 0.342 -0.404 0.805 -0.404 1.387 c 0 0.582 0.134 1.045 0.404 1.387 c 0.27 0.342 0.636 0.512 1.098 0.512 c 0.462 0 0.83 -0.17 1.1 -0.512 c 0.27 -0.342 0.404 -0.805 0.404 -1.387 c 0 -0.582 -0.134 -1.045 -0.404 -1.387 c -0.27 -0.348 -0.638 -0.521 -1.1 -0.521 z" style="fill:#ececec;fill-opacity:1"/>
</svg>
